X:14001
T:Ninety-three Not Out
T:93 Not Out
R:Jig
C:Will Atkinson (1908-2003)
O:England, Northumberland
Z:Paul Hardy's Possible Tunebook 2015 (see www.paulhardy.net). Creative Commons cc by-nc-sa licenced.
M:6/8
L:1/8
Q:3/8=100
K:D
|:A|"D"d2d "A7"cBA|"G"BdB "D"AFD|"Em"GFG "D"AFD|"A7"EFG ABc|
"D"d2d "A7"cBA|"G"BdB "D"AFD|"Em"GFG "A7"EFG|"A7"ABc "D"d2:|
c|"D"d2d fed|"A7"cBc ecA|"G"B2B dcB|"D"AdA FED|
"Em"G2G BAG|"D"F2A d3|"E7"BAB e2d|"A7"cBA gfe||
"D"d2d fed|"A7"cBc ecA|"G"B2B dcB|"D"AdA FED|
"Em"G2G BAG|"D"FAd fag|"D"fed "A7"edc|"D"d3- d2|]

